X:94
T:Schotse Wals
Z:Bert Van Vreckem <http://flanders.blackmill.net/music/>
R:Wals
M:3/4
L:1/4
K:G
D|"G"G>Bd|dB"C"e|"G"dBg|dB"D"A|"G"G>Bd|dBG|"D7"DBA|"G"G2:|d|
"G"g>fg|"C"efg|"A7"eag|"D"fed|"G""Em"g>fg|"C"edc|"G""Em"BAG|"D"d2||B|
"C""Am"cec|"G"Bdg|d>B A/G/|"D"BAf|"C""Em"g>fe|"G"dgB|"D7"dcA|"G"G2||d/c/|
"G"B B/A/ B/c/|edB|"D7"dcA|"G"cBd/c/|B B/A/ B/c/|edB|"D7"def|"G"g2|]

